X:1
T:Title
%%score { 1 | 2 }
L:1/8
Q:1/4=118
M:3/4
K:Eb
V:1 treble nm="Grand Piano"
V:2 bass 
V:1
 G2 G2 G2 | G2 F2 E2 | [GB]3 [GB] [GB]2 | [GB]6 | G2 G2 G2 | B2 A2 G2 | G2 F2 E2 | [DF]4 [AB]2 | %8
w: W.~Stillman~Martin * *||||||||
 [Ge]2 [Gc]2 [Ge]2 | d2 A2 d2 | c2 G2 c2 | B4 E2 | E2 E2 F2 | G B3 G2 | [DF]3 [B,E] [DF]2 | E6 | %16
w: ||||||||
 E2 E2 F2 | G B3 G2 | [DF]3 [DE] [DF]2 | G6 | E2 E2 F2 | G B3 G2 | F2 d2 c2 | [DB]4 [AB]2 | %24
w: ||||||||
 [Ge]2 [Gc]2 [Ge]2 | d2 A2 d2 | c2 G2 c2 | B4 E2 | E2 E2 F2 | G B3 G2 | [DF]3 [B,E] [DF]2 | %31
w: |||||||
 [B,E]6 |] %32
w: |
V:2
 [E,B,E]2 [E,B,E]2 [E,B,E]2 | [E,B,E]2 [E,A,E]2 [E,G,]2 | [E,E]3 [E,E] [E,E]2 | [E,E]6 | %4
 [E,B,E]2 [E,B,E]2 [E,B,E]2 | [G,B,E]2 [F,B,D]2 [E,B,E]2 | [E,B,E]2 [D,B,D]2 [C,=A,C]2 | %7
 [B,,B,]4 [D,B,]2 | [E,B,]2 [E,B,]2 [E,B,]2 | [F,B,F]2 [F,B,F]2 [F,B,F]2 | %10
 [G,B,E]2 [G,B,E]2 [G,B,E]2 | [E,G,E]4 [E,G,B,]2 | [E,G,B,]2 [E,G,B,]2 [E,A,B,]2 | %13
 [E,B,E] [E,G,E]3 [E,B,E]2 | [B,,A,]3 [B,,G,] [B,,A,]2 | [E,G,B,]6 | %16
 [E,G,B,]2 [E,G,B,]2 [E,A,B,]2 | [E,B,E] [E,G,E]3 [E,B,E]2 | [B,,A,]3 [B,,G,] [B,,A,]2 | [E,B,E]6 | %20
 [E,G,B,]2 [E,G,B,]2 [E,A,B,]2 | [E,B,E] [E,G,E]3 [E,B,E]2 | [F,B,D]2 [F,B,F]2 [F,=A,E]2 | %23
 [B,,F,]4 [D,B,]2 | [E,B,]2 [E,B,]2 [E,B,]2 | [F,B,F]2 [F,B,F]2 [F,B,F]2 | %26
 [G,B,E]2 [G,B,E]2 [G,B,E]2 | [E,G,E]4 [E,G,B,]2 | [E,G,B,]2 [E,G,B,]2 [E,A,B,]2 | %29
 [E,B,E] [E,G,E]3 [E,B,E]2 | [B,,A,]3 [B,,G,] [B,,A,]2 | [E,G,]6 |] %32

